X:1
T:Aria di Postiglione
T:Aria di Postiglione
T:From BWV 0991?
T:Johann Sebastian Bach
C:Johann Sebastian Bach
%%score 1 2 3
L:1/8
M:4/4
K:Bb
V:1 treble 
V:2 bass 
V:3 bass 
V:1
 B/c/d/e/ fg f/g/f/e/ Md>c | Bb/B/ Bb/B/ Bb/B/ Bb/B/ | c/B/A/G/ FB{B} AG/F/ Ff/F/ | %3
 Ff/F/ Ff/_e/ d/c/B/c/ TA>B | Bb/B/ Bb/B/ Bb/B/ PB2 :: dg^fg ad g2 | z8 | ^cd/e/ fe dc d2 | %8
 z2 z f/F/ F2 z f/F/ x | F2 z b/B/ B2 z2 | z b/B/ B/c/d/e/ fB/c/ TA>B | Bb/B/ B2 z b/B/ PB2 :| %12
V:2
 z F, B,2- B,A, B,2 | z8 | F,3 F,-F,=E, F,2 | z2 z [C,F,] F,G, F,2 | [D,F,]2 z2 z2 [D,F,B,]2 :: %5
 B2 AG ^F z z2 | z8 | A2- AB AG F2 | z8 x | z8 | z3 A, B,G, F,2- | [D,F,]2 z2 z F, B,2 :| %12
V:3
 B,,3 E, F,2 B,,2 | z8 | A,,C,D,B,, C,2 F,,2 | z2 z A,, B,,_E, F,2 | B,,2 z2 z2 B,,2 :: %5
 G,/A,/B,/C/ DE D/E/D/C/ MB,>A, | G,G/G,/ G,G/G,/ G,G/G,/ G,G | A,/G,/F,/E,/ D,G, F,E, D,D/D,/ | %8
 D,D/D,/ D,2 z2 D,/D,,/ D,,2 | z B,/B,,/ B,,2 z B,/B,,/ B,,B,/B,,/ | B,,2 z C, D,E,F,F,, | %11
 B,,2 z B,/B,,/ B,,4 :| %12

